svgs/light/square-p.svg

<svg xmlns="http://www.w3.org/2000/svg" viewBox="0 0 448 512"><!-- Font Awesome Pro 6.0.0-alpha2 by @fontawesome - https://fontawesome.com License - https://fontawesome.com/license (Commercial License) --><path d="M384 32H64C28.654 32 0 60.654 0 96V416C0 451.346 28.654 480 64 480H384C419.346 480 448 451.346 448 416V96C448 60.654 419.346 32 384 32ZM416 416C416 433.645 401.645 448 384 448H64C46.355 448 32 433.645 32 416V96C32 78.355 46.355 64 64 64H384C401.645 64 416 78.355 416 96V416ZM240 128H144C135.156 128 128 135.156 128 144V368C128 376.844 135.156 384 144 384S160 376.844 160 368V320H240C292.938 320 336 276.938 336 224S292.938 128 240 128ZM240 288H160V160H240C275.281 160 304 188.703 304 224S275.281 288 240 288Z"/></svg>

<svg xmlns="http://www.w3.org/2000/svg" viewBox="0 0 448 512"><!--! Font Awesome Pro 6.0.0-alpha3 by @fontawesome - https://fontawesome.com License - https://fontawesome.com/license (Commercial License) --><path d="M384 32H64C28.65 32 0 60.65 0 96v320c0 35.35 28.65 64 64 64h320c35.35 0 64-28.65 64-64V96C448 60.65 419.3 32 384 32zM416 416c0 17.64-14.36 32-32 32H64c-17.64 0-32-14.36-32-32V96c0-17.64 14.36-32 32-32h320c17.64 0 32 14.36 32 32V416zM240 128h-96C135.2 128 128 135.2 128 144v224C128 376.8 135.2 384 144 384S160 376.8 160 368V320h80c52.94 0 96-43.06 96-96S292.9 128 240 128zM240 288H160V160h80c35.28 0 64 28.7 64 64S275.3 288 240 288z"/></svg>
